Flat-Remix-Dark/apps/scalable/recipes.svg

<svg xmlns="http://www.w3.org/2000/svg" xmlns:xlink="http://www.w3.org/1999/xlink" width="384pt" height="384pt" version="1.1" viewBox="0 0 384 384">
 <defs>
  <filter id="alpha" width="100%" height="100%" x="0%" y="0%" filterUnits="objectBoundingBox">
   <feColorMatrix in="SourceGraphic" type="matrix" values="0 0 0 0 1 0 0 0 0 1 0 0 0 0 1 0 0 0 1 0"/>
  </filter>
  <mask id="mask0">
   <g filter="url(#alpha)">
    <rect width="384" height="384" x="0" y="0" style="fill:rgb(0%,0%,0%);fill-opacity:0.2"/>
   </g>
  </mask>
  <clipPath id="clip1">
   <rect width="384" height="384" x="0" y="0"/>
  </clipPath>
  <g id="surface5" clip-path="url(#clip1)">
   <path style="fill:rgb(0%,0%,0%)" d="M 360 198 C 360 290.785156 284.785156 366 192 366 C 99.214844 366 24 290.785156 24 198 C 24 105.214844 99.214844 30 192 30 C 284.785156 30 360 105.214844 360 198 Z M 360 198"/>
  </g>
  <mask id="mask1">
   <g filter="url(#alpha)">
    <rect width="384" height="384" x="0" y="0" style="fill:rgb(0%,0%,0%);fill-opacity:0.2"/>
   </g>
  </mask>
  <clipPath id="clip2">
   <rect width="384" height="384" x="0" y="0"/>
  </clipPath>
  <g id="surface8" clip-path="url(#clip2)">
   <path style="fill:rgb(0%,0%,0%)" d="M 156 234 L 156 314 C 156 322.863281 161.351562 330 168 330 L 180 330 C 186.648438 330 192 322.863281 192 314 L 192 234 Z M 156 234"/>
  </g>
  <mask id="mask2">
   <g filter="url(#alpha)">
    <rect width="384" height="384" x="0" y="0" style="fill:rgb(0%,0%,0%);fill-opacity:0.2"/>
   </g>
  </mask>
  <clipPath id="clip3">
   <rect width="384" height="384" x="0" y="0"/>
  </clipPath>
  <g id="surface11" clip-path="url(#clip3)">
   <path style="fill:rgb(0%,0%,0%)" d="M 156 66 C 156 66 240 112.457031 240 234 L 156 234 Z M 156 66"/>
  </g>
  <mask id="mask3">
   <g filter="url(#alpha)">
    <rect width="384" height="384" x="0" y="0" style="fill:rgb(0%,0%,0%);fill-opacity:0.2"/>
   </g>
  </mask>
  <clipPath id="clip4">
   <rect width="384" height="384" x="0" y="0"/>
  </clipPath>
  <g id="surface14" clip-path="url(#clip4)">
   <path style="fill:rgb(0%,0%,0%)" d="M 180 300 C 180 303.3125 177.3125 306 174 306 C 170.6875 306 168 303.3125 168 300 C 168 296.6875 170.6875 294 174 294 C 177.3125 294 180 296.6875 180 300 Z M 180 300"/>
  </g>
  <mask id="mask4">
   <g filter="url(#alpha)">
    <rect width="384" height="384" x="0" y="0" style="fill:rgb(0%,0%,0%);fill-opacity:0.2"/>
   </g>
  </mask>
  <clipPath id="clip5">
   <rect width="384" height="384" x="0" y="0"/>
  </clipPath>
  <g id="surface17" clip-path="url(#clip5)">
   <path style="fill:rgb(0%,0%,0%)" d="M 180 264 C 180 267.3125 177.3125 270 174 270 C 170.6875 270 168 267.3125 168 264 C 168 260.6875 170.6875 258 174 258 C 177.3125 258 180 260.6875 180 264 Z M 180 264"/>
  </g>
  <mask id="mask5">
   <g filter="url(#alpha)">
    <rect width="384" height="384" x="0" y="0" style="fill:rgb(0%,0%,0%);fill-opacity:0.2"/>
   </g>
  </mask>
  <clipPath id="clip6">
   <rect width="384" height="384" x="0" y="0"/>
  </clipPath>
  <g id="surface20" clip-path="url(#clip6)">
   <path style="fill:rgb(0%,0%,0%)" d="M 384 306 C 384 345.765625 351.765625 378 312 378 C 272.234375 378 240 345.765625 240 306 C 240 266.234375 272.234375 234 312 234 C 351.765625 234 384 266.234375 384 306 Z M 384 306"/>
  </g>
  <mask id="mask6">
   <g filter="url(#alpha)">
    <rect width="384" height="384" x="0" y="0" style="fill:rgb(0%,0%,0%);fill-opacity:0.101961"/>
   </g>
  </mask>
  <clipPath id="clip7">
   <rect width="384" height="384" x="0" y="0"/>
  </clipPath>
  <g id="surface23" clip-path="url(#clip7)">
   <path style="fill-rule:evenodd;fill:rgb(0%,0%,0%)" d="M 296 232.003906 L 296 241.894531 C 275.1875 246.652344 257.558594 260.398438 247.875 279.425781 C 253.277344 278.480469 264.445312 275.667969 281.328125 266.457031 C 288.03125 262.800781 293.792969 259.558594 296 256.003906 C 276.863281 280.003906 297.617188 283.523438 308 296.003906 C 308 296.003906 332.328125 280.003906 312 256.003906 C 336 267.6875 360 264.003906 360 264.003906 C 360 264.003906 360.128906 261.652344 359.96875 258.410156 C 346.785156 246.585938 329.710938 240.03125 312 240.003906 L 312 232.003906 Z M 296 232.003906"/>
  </g>
  <mask id="mask7">
   <g filter="url(#alpha)">
    <rect width="384" height="384" x="0" y="0" style="fill:rgb(0%,0%,0%);fill-opacity:0.2"/>
   </g>
  </mask>
  <clipPath id="clip8">
   <rect width="384" height="384" x="0" y="0"/>
  </clipPath>
  <g id="surface26" clip-path="url(#clip8)">
   <path style="fill:rgb(100%,100%,100%)" d="M 192 24 C 99.214844 24 24 99.238281 24 192.046875 C 24.027344 193.03125 24.0625 194.015625 24.105469 195 C 25.765625 103.425781 100.433594 30.042969 192 30 C 283.546875 30.070312 358.1875 103.441406 359.847656 195 C 359.90625 194.015625 359.957031 193.03125 360 192.046875 C 360 99.238281 284.785156 24 192 24 Z M 192 24"/>
  </g>
 </defs>
 <g>
  <use mask="url(#mask0)" xlink:href="#surface5"/>
  <path style="fill:rgb(79.215686%,63.137255%,49.019608%)" d="M 360 192 C 360 284.785156 284.785156 360 192 360 C 99.214844 360 24 284.785156 24 192 C 24 99.214844 99.214844 24 192 24 C 284.785156 24 360 99.214844 360 192 Z M 360 192"/>
  <use mask="url(#mask1)" xlink:href="#surface8"/>
  <use mask="url(#mask2)" xlink:href="#surface11"/>
  <path style="fill:rgb(52.156863%,33.72549%,16.078431%)" d="M 156 228 L 156 308 C 156 316.863281 161.351562 324 168 324 L 180 324 C 186.648438 324 192 316.863281 192 308 L 192 228 Z M 156 228"/>
  <use mask="url(#mask3)" xlink:href="#surface14"/>
  <use mask="url(#mask4)" xlink:href="#surface17"/>
  <path style="fill:rgb(80%,80%,80%)" d="M 156 60 C 156 60 240 106.457031 240 228 L 156 228 Z M 156 60"/>
  <path style="fill:rgb(80%,80%,80%)" d="M 180 258 C 180 261.3125 177.3125 264 174 264 C 170.6875 264 168 261.3125 168 258 C 168 254.6875 170.6875 252 174 252 C 177.3125 252 180 254.6875 180 258 Z M 180 258"/>
  <path style="fill:rgb(80%,80%,80%)" d="M 180 294 C 180 297.3125 177.3125 300 174 300 C 170.6875 300 168 297.3125 168 294 C 168 290.6875 170.6875 288 174 288 C 177.3125 288 180 290.6875 180 294 Z M 180 294"/>
  <use mask="url(#mask5)" xlink:href="#surface20"/>
  <path style="fill:rgb(90.588235%,29.803922%,23.529412%)" d="M 384 300 C 384 339.765625 351.765625 372 312 372 C 272.234375 372 240 339.765625 240 300 C 240 260.234375 272.234375 228 312 228 C 351.765625 228 384 260.234375 384 300 Z M 384 300"/>
  <use mask="url(#mask6)" xlink:href="#surface23"/>
  <path style="fill-rule:evenodd;fill:rgb(65.098039%,93.72549%,30.196078%)" d="M 296 220 L 296 229.890625 C 275.1875 234.648438 257.558594 248.394531 247.875 267.421875 C 253.277344 266.476562 264.445312 263.664062 281.328125 254.453125 C 288.03125 250.796875 293.792969 247.554688 296 244 C 276.863281 268 297.617188 271.519531 308 284 C 308 284 332.328125 268 312 244 C 336 255.683594 360 252 360 252 C 360 252 360.128906 249.648438 359.96875 246.40625 C 346.785156 234.582031 329.710938 228.027344 312 228 L 312 220 Z M 296 220"/>
  <use mask="url(#mask7)" xlink:href="#surface26"/>
 </g>
</svg>

<svg xmlns="http://www.w3.org/2000/svg" xmlns:xlink="http://www.w3.org/1999/xlink" width="384pt" height="384pt" version="1.1" viewBox="0 0 384 384">
 <defs>
  <filter id="alpha" width="100%" height="100%" x="0%" y="0%" filterUnits="objectBoundingBox">
   <feColorMatrix in="SourceGraphic" type="matrix" values="0 0 0 0 1 0 0 0 0 1 0 0 0 0 1 0 0 0 1 0"/>
  </filter>
  <mask id="mask1">
   <g filter="url(#alpha)">
    <rect width="384" height="384" x="0" y="0" style="fill:rgb(0%,0%,0%);fill-opacity:0.2"/>
   </g>
  </mask>
  <clipPath id="clip2">
   <rect width="384" height="384" x="0" y="0"/>
  </clipPath>
  <g id="surface8" clip-path="url(#clip2)">
   <path style="fill:rgb(0%,0%,0%)" d="M 156 234 L 156 314 C 156 322.863281 161.351562 330 168 330 L 180 330 C 186.648438 330 192 322.863281 192 314 L 192 234 Z M 156 234"/>
  </g>
  <mask id="mask2">
   <g filter="url(#alpha)">
    <rect width="384" height="384" x="0" y="0" style="fill:rgb(0%,0%,0%);fill-opacity:0.2"/>
   </g>
  </mask>
  <clipPath id="clip3">
   <rect width="384" height="384" x="0" y="0"/>
  </clipPath>
  <g id="surface11" clip-path="url(#clip3)">
   <path style="fill:rgb(0%,0%,0%)" d="M 156 66 C 156 66 240 112.457031 240 234 L 156 234 Z M 156 66"/>
  </g>
  <mask id="mask3">
   <g filter="url(#alpha)">
    <rect width="384" height="384" x="0" y="0" style="fill:rgb(0%,0%,0%);fill-opacity:0.2"/>
   </g>
  </mask>
  <clipPath id="clip4">
   <rect width="384" height="384" x="0" y="0"/>
  </clipPath>
  <g id="surface14" clip-path="url(#clip4)">
   <path style="fill:rgb(0%,0%,0%)" d="M 180 300 C 180 303.3125 177.3125 306 174 306 C 170.6875 306 168 303.3125 168 300 C 168 296.6875 170.6875 294 174 294 C 177.3125 294 180 296.6875 180 300 Z M 180 300"/>
  </g>
  <mask id="mask4">
   <g filter="url(#alpha)">
    <rect width="384" height="384" x="0" y="0" style="fill:rgb(0%,0%,0%);fill-opacity:0.2"/>
   </g>
  </mask>
  <clipPath id="clip5">
   <rect width="384" height="384" x="0" y="0"/>
  </clipPath>
  <g id="surface17" clip-path="url(#clip5)">
   <path style="fill:rgb(0%,0%,0%)" d="M 180 264 C 180 267.3125 177.3125 270 174 270 C 170.6875 270 168 267.3125 168 264 C 168 260.6875 170.6875 258 174 258 C 177.3125 258 180 260.6875 180 264 Z M 180 264"/>
  </g>
  <mask id="mask5">
   <g filter="url(#alpha)">
    <rect width="384" height="384" x="0" y="0" style="fill:rgb(0%,0%,0%);fill-opacity:0.2"/>
   </g>
  </mask>
  <clipPath id="clip6">
   <rect width="384" height="384" x="0" y="0"/>
  </clipPath>
  <g id="surface20" clip-path="url(#clip6)">
   <path style="fill:rgb(0%,0%,0%)" d="M 384 306 C 384 345.765625 351.765625 378 312 378 C 272.234375 378 240 345.765625 240 306 C 240 266.234375 272.234375 234 312 234 C 351.765625 234 384 266.234375 384 306 Z M 384 306"/>
  </g>
  <mask id="mask6">
   <g filter="url(#alpha)">
    <rect width="384" height="384" x="0" y="0" style="fill:rgb(0%,0%,0%);fill-opacity:0.101961"/>
   </g>
  </mask>
  <clipPath id="clip7">
   <rect width="384" height="384" x="0" y="0"/>
  </clipPath>
  <g id="surface23" clip-path="url(#clip7)">
   <path style="fill-rule:evenodd;fill:rgb(0%,0%,0%)" d="M 296 232.003906 L 296 241.894531 C 275.1875 246.652344 257.558594 260.398438 247.875 279.425781 C 253.277344 278.480469 264.445312 275.667969 281.328125 266.457031 C 288.03125 262.800781 293.792969 259.558594 296 256.003906 C 276.863281 280.003906 297.617188 283.523438 308 296.003906 C 308 296.003906 332.328125 280.003906 312 256.003906 C 336 267.6875 360 264.003906 360 264.003906 C 360 264.003906 360.128906 261.652344 359.96875 258.410156 C 346.785156 246.585938 329.710938 240.03125 312 240.003906 L 312 232.003906 Z M 296 232.003906"/>
  </g>
 </defs>
 <g transform="matrix(1.0613208,0,0,1.0613208,-94.556616,-40.429255)">
  <g>
   <use width="100%" height="100%" x="0" y="0" mask="url(#mask1)" xlink:href="#surface8"/>
   <use width="100%" height="100%" x="0" y="0" mask="url(#mask2)" xlink:href="#surface11"/>
   <path d="m 156,228 v 80 c 0,8.86328 5.35156,16 12,16 h 12 c 6.64844,0 12,-7.13672 12,-16 v -80 z m 0,0" style="fill:#855428"/>
   <use width="100%" height="100%" x="0" y="0" mask="url(#mask3)" xlink:href="#surface14"/>
   <use width="100%" height="100%" x="0" y="0" mask="url(#mask4)" xlink:href="#surface17"/>
   <path d="m 156,60 c 0,0 84,46.45703 84,168 h -84 z m 0,0" style="fill:#fefefe"/>
   <path d="m 180,258 c 0,3.3125 -2.6875,6 -6,6 -3.3125,0 -6,-2.6875 -6,-6 0,-3.3125 2.6875,-6 6,-6 3.3125,0 6,2.6875 6,6 z m 0,0" style="fill:#cccccc"/>
   <path d="m 180,294 c 0,3.3125 -2.6875,6 -6,6 -3.3125,0 -6,-2.6875 -6,-6 0,-3.3125 2.6875,-6 6,-6 3.3125,0 6,2.6875 6,6 z m 0,0" style="fill:#cccccc"/>
   <use width="100%" height="100%" x="0" y="0" mask="url(#mask5)" xlink:href="#surface20"/>
   <path d="m 384,300 c 0,39.76562 -32.23438,72 -72,72 -39.76563,0 -72,-32.23438 -72,-72 0,-39.76563 32.23437,-72 72,-72 39.76562,0 72,32.23437 72,72 z m 0,0" style="fill:#d41919"/>
   <use width="100%" height="100%" x="0" y="0" mask="url(#mask6)" xlink:href="#surface23"/>
   <path d="m 296,220 v 9.89062 c -20.8125,4.75782 -38.44141,18.50391 -48.125,37.53125 5.40234,-0.94531 16.57031,-3.75781 33.45312,-12.96875 C 288.03125,250.79687 293.79297,247.55469 296,244 c -19.13672,24 1.61719,27.51953 12,40 0,0 24.32812,-16 4,-40 24,11.68359 48,8 48,8 0,0 0.12891,-2.35156 -0.0312,-5.59375 C 346.78516,234.58203 329.71094,228.02734 312,228 v -8 z m 0,0" style="fill:#0a814b;fill-rule:evenodd"/>
  </g>
 </g>
</svg>
